icons/TabGroup-add.svg

<svg width="16" height="16" viewBox="0 0 16 16" fill="none" xmlns="http://www.w3.org/2000/svg">
<path d="M1.08581 5.18294C0.728451 3.84928 1.51991 2.47844 2.85357 2.12108L6.71728 1.08581C8.05094 0.728451 9.42178 1.51991 9.77914 2.85357L10.3543 5H9.319L8.81321 3.11239C8.5988 2.31219 7.77629 1.83732 6.9761 2.05173L3.11239 3.08701C2.31219 3.30142 1.83732 4.12393 2.05173 4.92413L3.08701 8.78783C3.30142 9.58803 4.12393 10.0629 4.92413 9.84849L5 9.82816V10.8563C3.72612 11.0983 2.46211 10.3194 2.12108 9.04665L1.08581 5.18294ZM8 6C6.89543 6 6 6.89543 6 8V13C6 14.1046 6.89543 15 8 15H13C14.1046 15 15 14.1046 15 13V8C15 6.89543 14.1046 6 13 6H8ZM7 8C7 7.44772 7.44772 7 8 7H13C13.5523 7 14 7.44772 14 8V13C14 13.5523 13.5523 14 13 14H8C7.44772 14 7 13.5523 7 13V8ZM11 8.5C11 8.22386 10.7761 8 10.5 8C10.2239 8 10 8.22386 10 8.5V10H8.5C8.22386 10 8 10.2239 8 10.5C8 10.7761 8.22386 11 8.5 11H10V12.5C10 12.7761 10.2239 13 10.5 13C10.7761 13 11 12.7761 11 12.5V11H12.5C12.7761 11 13 10.7761 13 10.5C13 10.2239 12.7761 10 12.5 10H11V8.5Z" fill="#212121"/>
</svg>

<svg width="16" height="16" xmlns="http://www.w3.org/2000/svg" fill="context-fill" fill-opacity="context-fill-opacity">
  <path class="st0" d="M1.086,5.183c-.357-1.334.434-2.704,1.768-3.062l3.864-1.035c1.334-.357,2.704.434,3.062,1.768l.575,2.146h-1.035l-.506-1.888c-.214-.8-1.037-1.275-1.837-1.061l-3.864,1.035c-.8.214-1.275,1.037-1.061,1.837l1.035,3.864c.214.8,1.037,1.275,1.837,1.061l.076-.02v1.028c-1.274.242-2.538-.537-2.879-1.81l-1.035-3.864ZM8,6c-1.105,0-2,.895-2,2v5c0,1.105.895,2,2,2h5c1.105,0,2-.895,2-2v-5c0-1.105-.895-2-2-2h-5ZM7,8c0-.552.448-1,1-1h5c.552,0,1,.448,1,1v5c0,.552-.448,1-1,1h-5c-.552,0-1-.448-1-1v-5ZM11,8.5c0-.276-.224-.5-.5-.5s-.5.224-.5.5v1.5h-1.5c-.276,0-.5.224-.5.5s.224.5.5.5h1.5v1.5c0,.276.224.5.5.5s.5-.224.5-.5v-1.5h1.5c.276,0,.5-.224.5-.5s-.224-.5-.5-.5h-1.5v-1.5Z"/>
</svg>
